src/images/rutube-icon-full.svg

<svg width="244" height="64" fill="none" xmlns="http://www.w3.org/2000/svg"><path d="M228 0H16C7 0 0 7 0 16v32c0 9 7 16 16 16h212c9 0 16-7 16-16V16c0-9-7-16-16-16Z" fill="#000"/><path d="M117 25v-6l-6 1v5h-2v5h2v14h6V30h4v-5h-4ZM85 34c2-1 3-3 3-5v-1c0-5-3-8-8-8H68v24h6v-8h6l4 8h6l-5-10Zm-3-6c0 2-1 3-3 3h-5v-6h5c2 0 3 1 3 3ZM150 25h-3v-6l-6 1v24h9c4 0 8-3 8-7v-4c0-4-4-8-8-8Zm2 11c0 2-1 3-3 3h-2v-9h2c2 0 3 1 3 3v3ZM133 25v11c0 2 0 3-2 3s-3-1-3-3V25h-6v12c0 4 2 7 8 7h1c6 0 8-3 8-7V25h-6ZM101 25v11c0 2-1 3-2 3-2 0-3-1-3-3V25h-6v12c0 4 2 7 8 7h1c6 0 8-3 8-7V25h-6ZM172 38s-1 2-4 2c-2 0-3-1-3-3v-1h11v-3c0-4-3-8-8-8-6 0-9 4-9 8v4c0 4 3 8 9 8 5 0 8-5 8-5l-4-2Zm-7-6c0-2 1-3 2-3h1c1 0 3 1 3 3h-6Z" fill="#fff"/></svg>

<?xml version="1.0" encoding="UTF-8" standalone="no"?>
<!DOCTYPE svg PUBLIC "-//W3C//DTD SVG 1.1//EN" "http://www.w3.org/Graphics/SVG/1.1/DTD/svg11.dtd">
<svg width="100%" height="100%" viewBox="0 0 110 46" version="1.1" xmlns="http://www.w3.org/2000/svg" xmlns:xlink="http://www.w3.org/1999/xlink" xml:space="preserve" xmlns:serif="http://www.serif.com/" style="fill-rule:evenodd;clip-rule:evenodd;stroke-linejoin:round;stroke-miterlimit:2;">
    <g transform="matrix(1,0,0,1,-67,-9)">
        <path d="M117,25L117,19L111,20L111,25L109,25L109,30L111,30L111,44L117,44L117,30L121,30L121,25L117,25ZM85,34C87,33 88,31 88,29L88,28C88,23 85,20 80,20L68,20L68,44L74,44L74,36L80,36L84,44L90,44L85,34ZM82,28C82,30 81,31 79,31L74,31L74,25L79,25C81,25 82,26 82,28ZM150,25L147,25L147,19L141,20L141,44L150,44C154,44 158,41 158,37L158,33C158,29 154,25 150,25ZM152,36C152,38 151,39 149,39L147,39L147,30L149,30C151,30 152,31 152,33L152,36ZM133,25L133,36C133,38 133,39 131,39C129,39 128,38 128,36L128,25L122,25L122,37C122,41 124,44 130,44L131,44C137,44 139,41 139,37L139,25L133,25ZM101,25L101,36C101,38 100,39 99,39C97,39 96,38 96,36L96,25L90,25L90,37C90,41 92,44 98,44L99,44C105,44 107,41 107,37L107,25L101,25ZM172,38C172,38 171,40 168,40C166,40 165,39 165,37L165,36L176,36L176,33C176,29 173,25 168,25C162,25 159,29 159,33L159,37C159,41 162,45 168,45C173,45 176,40 176,40L172,38ZM165,32C165,30 166,29 167,29L168,29C169,29 171,30 171,32L165,32Z" style="fill:rgb(206,188,153);fill-rule:nonzero;"/>
    </g>
</svg>
